app/dist/common/images/sgt-german-private-equity-gmbh.svg

<svg height="18" viewBox="0 0 18 18" width="18" xmlns="http://www.w3.org/2000/svg"><path d="m0 0h18v18h-18z" fill="#f0f3fa"/><path d="m3 9.96.66-.16c.06.46.49.7 1.15.7.64 0 1.19-.17 1.19-.5 0-.5-1.03-.63-1.4-.74-.63-.16-1.6-.4-1.6-1.2 0-.83 1-1.06 1.67-1.06.72 0 1.71.27 1.71 1.16v.07h-.5v-.05c0-.45-.56-.68-1.21-.68-.6 0-1.17.23-1.17.56 0 .48.94.58 1.31.67.64.17 1.69.42 1.69 1.27 0 .86-1.02 1-1.7 1-.7 0-1.68-.2-1.8-1.04zm6-.46v-.5h2v2h-.5v-.68c-.3.45-.81.68-1.46.68a1.99 1.99 0 0 1 -2.04-2c0-1.16.98-2 2.1-2 .74 0 1.38.35 1.75.92l-.53.26a1.44 1.44 0 0 0 -1.22-.68c-.81 0-1.6.69-1.6 1.5 0 .8.68 1.5 1.5 1.5.66 0 1.38-.35 1.5-1zm2.5-2v-.5h3.5v.5h-1.5v3.5h-.5v-3.5z" fill="#315598"/></svg>

<!-- by TradingView --><svg width="18" height="18" viewBox="0 0 18 18" xmlns="http://www.w3.org/2000/svg"><path fill="#F0F3FA" d="M0 0h18v18H0z"/><path d="m3 9.96.66-.16c.06.46.49.7 1.15.7.64 0 1.19-.17 1.19-.5 0-.5-1.03-.63-1.4-.74-.63-.16-1.6-.4-1.6-1.2C3 7.23 4 7 4.67 7c.72 0 1.71.27 1.71 1.16v.07h-.5v-.05c0-.45-.56-.68-1.21-.68-.6 0-1.17.23-1.17.56 0 .48.94.58 1.31.67.64.17 1.69.42 1.69 1.27 0 .86-1.02 1-1.7 1-.7 0-1.68-.2-1.8-1.04ZM9 9.5V9h2v2h-.5v-.68c-.3.45-.81.68-1.46.68A1.99 1.99 0 0 1 7 9c0-1.16.98-2 2.1-2 .74 0 1.38.35 1.75.92l-.53.26A1.44 1.44 0 0 0 9.1 7.5c-.81 0-1.6.69-1.6 1.5 0 .8.68 1.5 1.5 1.5.66 0 1.38-.35 1.5-1H9ZM11.5 7.5V7H15v.5h-1.5V11H13V7.5h-1.5Z" fill="#315598"/></svg>
